X:110
T:Joe's Rant. JJo8.110
B:J.Johnson Choice Collection Vol 8 1758
Z:vmp.Simon Wilson 2013 www.village-music-project.org.uk
M:2/4
L:1/8
Q:1/2=80
N:perhaps Joe Grimaldi?
K:G
|:GG/G/ G>B|AA/A/ A>c|EE/E/ E>F|GDB,G,|GG/G/ G>B|AA/A/ A>c|EE/E/ E>F|(G2"^sic"HA,2):|
|:dd/d/ d>d|bgdB|cc/c/ c>c|afcA|BB/B/ B>B|gdBG|ca/c/ Ba/B/|A2D2:|
